web/themes/custom/pathways/images/college.svg

<svg width="238" height="71" viewBox="0 0 238 71" fill="none" xmlns="http://www.w3.org/2000/svg">
<g id="college">
<g id="Group">
<g id="College">
<text id="Sciences" fill="#2C2C2C" xml:space="preserve" style="white-space: pre" font-family="Gibson" font-size="36" font-weight="600" letter-spacing="0px"><tspan x="96" y="63.8">Sciences</tspan></text>
<g id="Arts">
<text fill="#2C2C2C" xml:space="preserve" style="white-space: pre" font-family="Gibson" font-size="36" font-weight="600" letter-spacing="0px"><tspan x="1" y="63.8">Arts</tspan></text>
<text fill="#2C2C2C" xml:space="preserve" style="white-space: pre" font-family="Gibson" font-size="36" font-weight="600" letter-spacing="-2.3px"><tspan x="68.5352" y="63.8"> </tspan></text>
</g>
<text id="The College of" fill="#999999" xml:space="preserve" style="white-space: pre" font-family="Gibson" font-size="28" font-weight="300" letter-spacing="0px"><tspan x="0" y="28.4">The College of</tspan></text>
</g>
</g>
<g id="&#38;/semi">
<path id="&#38;" d="M96.32 63.5837L90.5406 57.5835C91.9027 56.2215 94.6904 53.5459 95.2799 51.9146H89.8479C89.3034 53.097 88.8545 53.5459 87.3749 54.2337L84.0251 50.4421C86.4914 49.1169 88.8105 46.8714 88.8105 43.9265C88.8105 39.9877 85.3503 37.9999 81.301 37.9999C77.215 37.9999 73.4971 39.9877 73.4971 44.0738C73.4971 46.5401 74.8959 48.1966 76.1107 49.5587C72.8345 50.9575 70 53.203 70 56.8473C70 61.8904 74.1965 64.3199 78.9083 64.3199C82.2213 64.3199 84.4668 63.2524 87.0436 61.1542L89.5467 63.8782H96.32V63.5837ZM83.8042 44.1106C83.8042 45.7303 82.1109 46.7978 81.0065 47.4972L80.1599 46.577C79.755 46.0984 78.9451 45.2886 78.9451 44.1842C78.9451 42.7854 79.939 41.9387 81.4115 41.9387C82.8471 41.9387 83.8042 42.7118 83.8042 44.1106ZM83.8778 57.8044C82.9207 58.8719 81.1906 59.9394 79.3132 59.9394C77.399 59.9394 75.7425 58.651 75.7425 56.6632C75.7425 54.7122 77.2518 53.6815 78.4298 53.0189L79.166 52.614L83.8778 57.8044Z" fill="#B31414"/>
</g>
</g>
</svg>

<svg width="238" height="71" viewBox="0 0 238 71" fill="none" xmlns="http://www.w3.org/2000/svg"><g id="college"><g id="Group"><g id="College" font-family="Gibson" white-space="pre" letter-spacing="0"><text id="Sciences" fill="#2C2C2C" font-size="36" font-weight="600"><tspan x="96" y="63.8">Sciences</tspan></text><text id="Arts" fill="#2C2C2C" font-size="36" font-weight="600"><tspan x="1" y="63.8">Arts</tspan></text><text id="The College of" fill="#999" font-size="28" font-weight="300"><tspan x="0" y="28.4">The College of</tspan></text></g></g><g id="&amp;/semi"><path id="&amp;" d="M96.32 63.584l-5.78-6c1.363-1.363 4.15-4.038 4.74-5.67h-5.432c-.545 1.183-.993 1.632-2.473 2.32l-3.35-3.792c2.466-1.325 4.785-3.57 4.785-6.516 0-3.938-3.46-5.926-7.509-5.926-4.086 0-7.804 1.988-7.804 6.074 0 2.466 1.399 4.123 2.614 5.485C72.835 50.958 70 53.203 70 56.847c0 5.043 4.197 7.473 8.908 7.473 3.313 0 5.559-1.068 8.136-3.166l2.503 2.724h6.773v-.294zM83.804 44.11c0 1.62-1.693 2.687-2.797 3.386l-.847-.92c-.405-.479-1.215-1.288-1.215-2.393 0-1.399.994-2.245 2.467-2.245 1.435 0 2.392.773 2.392 2.172zm.074 13.693c-.957 1.068-2.687 2.135-4.565 2.135-1.914 0-3.57-1.288-3.57-3.276 0-1.95 1.509-2.981 2.687-3.644l.736-.405 4.712 5.19z" fill="#B31414"/></g></g></svg>
